icons/desktop/16/svg/layer-16.svg

<svg width="16" height="16" viewBox="0 0 16 16" fill="none" xmlns="http://www.w3.org/2000/svg">
<path d="M1.07691 10.383C1.27988 10.0212 1.73548 9.89215 2.09741 10.095L7.38745 13.0569C7.76445 13.2679 8.23311 13.2679 8.61011 13.0569L13.866 10.1155C14.2288 9.91256 14.6834 10.0419 14.8865 10.4026C15.0895 10.7636 14.9594 11.2211 14.5984 11.4241L9.34253 14.3664C8.92863 14.5983 8.46364 14.7141 7.99878 14.7141C7.53395 14.7141 7.06992 14.5993 6.65503 14.3664L1.36499 11.4035C1.00399 11.2015 0.874906 10.745 1.07691 10.383Z" fill="black"/>
<path fill-rule="evenodd" clip-rule="evenodd" d="M6.65601 2.34788C7.48389 1.88308 8.51464 1.88305 9.34351 2.34788L13.9763 4.94261C14.6172 5.30057 14.9997 5.95384 14.9998 6.68773C14.9998 7.42173 14.6163 8.07484 13.9763 8.43284L9.34351 11.0276C8.92952 11.2596 8.46474 11.3762 7.99976 11.3762C7.53478 11.3762 7.06999 11.2606 6.65601 11.0276L2.02222 8.43284C1.38148 8.07479 0.999757 7.42156 0.999757 6.68773C0.999852 5.95391 1.38242 5.30059 2.02222 4.94261L6.65601 2.34788ZM7.99976 3.49925C7.78876 3.49925 7.57643 3.55245 7.38843 3.65745L2.75562 6.25218C2.526 6.38204 2.49982 6.60053 2.49976 6.6887C2.49976 6.7767 2.52462 6.9962 2.75562 7.1262L7.38843 9.72093C7.76543 9.93193 8.23506 9.93193 8.61206 9.72093L13.2449 7.1262C13.4748 6.9962 13.5007 6.7767 13.5007 6.6887C13.5007 6.60054 13.4754 6.38205 13.2449 6.25218L8.61206 3.65745C8.42407 3.55246 8.21074 3.49926 7.99976 3.49925Z" fill="black"/>
</svg>

<!-- This Source Code Form is subject to the terms of the Mozilla Public
   - License, v. 2.0. If a copy of the MPL was not distributed with this
   - file, You can obtain one at http://mozilla.org/MPL/2.0/. -->
<svg xmlns="http://www.w3.org/2000/svg" width="16" height="16" fill="context-fill" fill-opacity="context-fill-opacity" viewBox="0 0 16 16">
    <path d="M1.077 10.383a.75.75 0 0 1 1.02-.288l5.29 2.962a1.26 1.26 0 0 0 1.223 0l5.256-2.941a.75.75 0 1 1 .732 1.308l-5.255 2.942a2.75 2.75 0 0 1-1.344.348c-.465 0-.93-.115-1.344-.348l-5.29-2.963a.75.75 0 0 1-.288-1.02" />
    <path fill-rule="evenodd" d="M6.656 2.348a2.76 2.76 0 0 1 2.688 0l4.632 2.595A1.98 1.98 0 0 1 15 6.688c0 .734-.384 1.387-1.024 1.745l-4.632 2.595A2.75 2.75 0 0 1 8 11.376a2.74 2.74 0 0 1-1.344-.348L2.022 8.433A1.98 1.98 0 0 1 1 6.688c0-.734.382-1.387 1.022-1.745zM8 3.499c-.211 0-.424.053-.612.158L2.756 6.252a.5.5 0 0 0-.256.437c0 .088.025.307.256.437l4.632 2.595c.377.21.847.21 1.224 0l4.633-2.595c.23-.13.256-.35.256-.437a.49.49 0 0 0-.256-.437L8.612 3.657A1.26 1.26 0 0 0 8 3.5" clip-rule="evenodd" />
</svg>
